svg/mirror_variant.svg

<svg xmlns="http://www.w3.org/2000/svg" viewBox="0 0 24 24"><path d="m8.29 10.28 3.24-3.25 1.06 1.06-3.24 3.25zm.41 4.33 5.66-5.66L15.42 10l-5.66 5.67zM14.17 3 18 6.83v10.34L14.17 21H9.83L6 17.17V6.83L9.83 3zM15 1H9L4 6v12l5 5h6l5-5V6z"/></svg>

<svg xmlns="http://www.w3.org/2000/svg" id="mdi-mirror-variant" viewBox="0 0 24 24"><path d="M8.29 10.28L11.53 7.03L12.59 8.09L9.35 11.34L8.29 10.28M8.7 14.61L14.36 8.95L15.42 10L9.76 15.67L8.7 14.61M14.17 3L18 6.83V17.17L14.17 21H9.83L6 17.17V6.83L9.83 3H14.17M15 1H9L4 6V18L9 23H15L20 18V6L15 1Z" /></svg>
